assets/images/component/AppFooter/icons/socials/icon-yt.svg

<svg width="30" height="22" viewBox="0 0 30 22" fill="none" xmlns="http://www.w3.org/2000/svg">
<path d="M16.0347 21.3575C12.5126 21.2825 10.0303 21.2575 7.55086 21.1662C6.2273 21.1174 4.89905 21.0139 3.5884 20.8267C2.08246 20.6116 1.11251 19.7064 0.63106 18.2663C0.292693 17.2535 0.151952 16.2081 0.117353 15.1576C0.0440497 12.932 -0.0222162 10.7041 0.00710502 8.47857C0.0276299 6.90649 0.100346 5.32511 0.513775 3.78618C0.899642 2.34898 1.70832 1.28213 3.20018 0.877486C3.80537 0.713534 4.44809 0.651325 5.07791 0.615861C9.59631 0.358886 14.1194 0.314701 18.6431 0.391444C20.7231 0.426328 22.8026 0.514117 24.8803 0.618767C25.5857 0.654232 26.3094 0.735627 26.9814 0.93795C28.3666 1.35422 29.1489 2.38735 29.4661 3.74257C29.6702 4.61407 29.8391 5.51 29.8743 6.40068C29.9646 8.66345 30.0144 10.9303 29.9962 13.1948C29.9845 14.7006 29.9136 16.2157 29.5382 17.6901C29.309 18.5901 28.9682 19.4343 28.2141 20.0575C27.4682 20.6744 26.5967 20.9569 25.6538 20.9959C22.1018 21.143 18.5492 21.2651 16.0347 21.3575ZM11.915 6.34313C11.915 9.14193 11.915 11.8954 11.915 14.6919C14.6231 13.3006 17.2961 11.9268 20.0118 10.5315C17.2837 9.12042 14.6155 7.7402 11.915 6.34313Z" fill="white"/>
</svg>

<svg width="30" height="22" fill="none" xmlns="http://www.w3.org/2000/svg"><path d="M16.035 21.358c-3.522-.076-6.005-.1-8.484-.192a37.956 37.956 0 0 1-3.963-.34c-1.506-.214-2.475-1.12-2.957-2.56-.338-1.012-.479-2.058-.514-3.108-.073-2.226-.14-4.454-.11-6.68.02-1.572.093-3.153.507-4.692C.9 2.35 1.708 1.282 3.2.877 3.805.714 4.448.651 5.078.616 9.596.359 14.119.315 18.643.39c2.08.035 4.16.123 6.237.228.706.035 1.43.117 2.101.319 1.386.416 2.168 1.45 2.485 2.805.204.871.373 1.767.408 2.658.09 2.262.14 4.53.122 6.794-.011 1.506-.082 3.02-.458 4.495-.229.9-.57 1.744-1.324 2.367-.746.617-1.617.9-2.56.939-3.552.147-7.105.27-9.62.362Zm-4.12-15.015v8.349l8.097-4.16-8.097-4.189Z" fill="#fff"/></svg>
